img/Done.svg

<svg width="16" height="16" viewBox="0 0 16 16" fill="none" xmlns="http://www.w3.org/2000/svg">
<path d="M8 0C3.58897 0 0 3.58897 0 8C0 12.411 3.58897 16 8 16C12.411 16 16 12.411 16 8C16 3.58897 12.411 0 8 0ZM8 15.4483C3.89241 15.4483 0.551724 12.1076 0.551724 8C0.551724 3.89241 3.89241 0.551724 8 0.551724C12.1076 0.551724 15.4483 3.89241 15.4483 8C15.4483 12.1076 12.1076 15.4483 8 15.4483ZM12.4441 5.10069C12.5517 5.20828 12.5517 5.38207 12.4441 5.48966L7.42345 10.5103C7.37103 10.5628 7.30207 10.5903 7.22759 10.5903C7.1531 10.5903 7.08414 10.56 7.03172 10.5103L4.32828 7.8069C4.22069 7.69931 4.22069 7.52552 4.32828 7.41793C4.43586 7.31034 4.60966 7.31034 4.71724 7.41793L7.22483 9.92552L12.0497 5.10069C12.16 4.9931 12.3366 4.9931 12.4441 5.10069Z" fill="#FF7010"/>
</svg>

<svg width="16" height="16" fill="none" xmlns="http://www.w3.org/2000/svg"><path d="M8 0C3.589 0 0 3.589 0 8s3.589 8 8 8 8-3.589 8-8-3.589-8-8-8Zm0 15.448C3.892 15.448.552 12.108.552 8 .552 3.892 3.892.552 8 .552c4.108 0 7.448 3.34 7.448 7.448 0 4.108-3.34 7.448-7.448 7.448Zm4.444-10.347a.275.275 0 0 1 0 .389l-5.02 5.02a.273.273 0 0 1-.196.08.285.285 0 0 1-.196-.08L4.328 7.807a.275.275 0 1 1 .39-.39l2.507 2.509L12.05 5.1a.281.281 0 0 1 .394 0Z" fill="#FF7010"/></svg>
